_includes/icons/color-doc.svg

<svg fill="#666" height="50" viewBox="0 0 48 48" width="50" xmlns="http://www.w3.org/2000/svg"><path d="m40 45h-32v-42h22l10 10z" fill="#ba68c8"/><path d="m38.5 14h-9.5v-9.5z" fill="#f3e5f5"/><path d="m28 28.898438c0 1.300781-.300781 2.402343-.898437 3.101562-.601563.699219-1.5 1.101563-2.601563 1.101563-1.101562 0-2-.402344-2.601562-1.101563-.597657-.699219-1-1.800781-1-3.101562v-1.699219c0-1.398438.300781-2.398438 1-3.199219.601562-.800781 1.5-1.199219 2.601562-1.199219 1.101563 0 2 .398438 2.601563 1.097657.597656.800781 1 1.800781 1 3.203125v1.796875zm-2-1.597657c0-.902343-.101562-1.601562-.398437-2-.300782-.402343-.703125-.699218-1.203125-.699218s-.898438.199218-1.199219.597656c-.300781.402344-.398438 1.101562-.398438 1.902344v1.796875c0 .902343.097657 1.5.398438 1.902343.300781.398438.699219.597657 1.199219.597657s.902343-.199219 1.203125-.597657c.296875-.402343.398437-1 .398437-1.902343zm-13 5.699219v-10h2.601563c1.199218 0 2.097656.398438 2.796875 1.101563.703125.699218 1 1.796875 1.101562 3v1.597656c0 1.300781-.300781 2.300781-1 3.101562-.699219.699219-1.601562 1.097657-2.898437 1.097657h-2.601563zm2-8.300781v6.601562h.601563c.699218 0 1.097656-.199218 1.398437-.5.300781-.402343.398438-1 .398438-1.800781v-1.699219c0-.902343-.097657-1.601562-.398438-1.902343-.300781-.398438-.699219-.597657-1.300781-.597657h-.699219zm20.898438 5.101562c-.097657 1.097657-.398438 2-1 2.597657-.597657.601562-1.398438.902343-2.5.902343-1.097657 0-2-.402343-2.597657-1.101562-.601562-.699219-.902343-1.800781-.902343-3.199219v-1.699219c0-1.402343.300781-2.402343.902343-3.199218.597657-.703125 1.5-1.101563 2.597657-1.101563 1.101562 0 1.902343.300781 2.5.898438.601562.601562.902343 1.5 1 2.601562h-2c0-.699219-.097657-1.199219-.296875-1.5-.203125-.300781-.601563-.398437-1.101563-.398437s-.898437.199218-1.101562.597656c-.199219.402344-.296875 1-.398438 1.902344v1.898437c0 1 .101563 1.699219.300781 2 .199219.398438.597657.601563 1.097657.601563s.902343-.101563 1.101562-.402344.300781-.699219.300781-1.398438z" fill="#4a148c"/></svg>

<svg xmlns="http://www.w3.org/2000/svg" viewBox="0 0 48 48" width="50" height="50" fill="#666"><path d="M 40 45 L 8 45 L 8 3 L 30 3 L 40 13 Z" fill="#ba68c8"/><path d="M 38.5 14 L 29 14 L 29 4.5 Z" fill="#f3e5f5"/><path d="M 28 28.898438 C 28 30.199219 27.699219 31.300781 27.101563 32 C 26.5 32.699219 25.601563 33.101563 24.5 33.101563 C 23.398438 33.101563 22.5 32.699219 21.898438 32 C 21.300781 31.300781 20.898438 30.199219 20.898438 28.898438 L 20.898438 27.199219 C 20.898438 25.800781 21.199219 24.800781 21.898438 24 C 22.5 23.199219 23.398438 22.800781 24.5 22.800781 C 25.601563 22.800781 26.5 23.199219 27.101563 23.898438 C 27.699219 24.699219 28.101563 25.699219 28.101563 27.101563 L 28.101563 28.898438 Z M 26 27.300781 C 26 26.398438 25.898438 25.699219 25.601563 25.300781 C 25.300781 24.898438 24.898438 24.601563 24.398438 24.601563 C 23.898438 24.601563 23.5 24.800781 23.199219 25.199219 C 22.898438 25.601563 22.800781 26.300781 22.800781 27.101563 L 22.800781 28.898438 C 22.800781 29.800781 22.898438 30.398438 23.199219 30.800781 C 23.5 31.199219 23.898438 31.398438 24.398438 31.398438 C 24.898438 31.398438 25.300781 31.199219 25.601563 30.800781 C 25.898438 30.398438 26 29.800781 26 28.898438 Z M 13 33 L 13 23 L 15.601563 23 C 16.800781 23 17.699219 23.398438 18.398438 24.101563 C 19.101563 24.800781 19.398438 25.898438 19.5 27.101563 L 19.5 28.699219 C 19.5 30 19.199219 31 18.5 31.800781 C 17.800781 32.5 16.898438 32.898438 15.601563 32.898438 L 13 32.898438 Z M 15 24.699219 L 15 31.300781 L 15.601563 31.300781 C 16.300781 31.300781 16.699219 31.101563 17 30.800781 C 17.300781 30.398438 17.398438 29.800781 17.398438 29 L 17.398438 27.300781 C 17.398438 26.398438 17.300781 25.699219 17 25.398438 C 16.699219 25 16.300781 24.800781 15.699219 24.800781 L 15 24.800781 Z M 35.898438 29.800781 C 35.800781 30.898438 35.5 31.800781 34.898438 32.398438 C 34.300781 33 33.5 33.300781 32.398438 33.300781 C 31.300781 33.300781 30.398438 32.898438 29.800781 32.199219 C 29.199219 31.5 28.898438 30.398438 28.898438 29 L 28.898438 27.300781 C 28.898438 25.898438 29.199219 24.898438 29.800781 24.101563 C 30.398438 23.398438 31.300781 23 32.398438 23 C 33.5 23 34.300781 23.300781 34.898438 23.898438 C 35.5 24.5 35.800781 25.398438 35.898438 26.5 L 33.898438 26.5 C 33.898438 25.800781 33.800781 25.300781 33.601563 25 C 33.398438 24.699219 33 24.601563 32.5 24.601563 C 32 24.601563 31.601563 24.800781 31.398438 25.199219 C 31.199219 25.601563 31.101563 26.199219 31 27.101563 L 31 29 C 31 30 31.101563 30.699219 31.300781 31 C 31.5 31.398438 31.898438 31.601563 32.398438 31.601563 C 32.898438 31.601563 33.300781 31.5 33.5 31.199219 C 33.699219 30.898438 33.800781 30.5 33.800781 29.800781 Z" fill="#4a148c"/></svg>
